icons/humanity/actions/16/view-fullscreen.svg

<?xml version="1.0" encoding="UTF-8" standalone="no"?>
<!-- Created with Inkscape (http://www.inkscape.org/) -->

<svg
   xmlns:svg="http://www.w3.org/2000/svg"
   xmlns="http://www.w3.org/2000/svg"
   xmlns:xlink="http://www.w3.org/1999/xlink"
   version="1.0"
   width="16"
   height="16"
   id="svg4375">
  <defs
     id="defs4377">
    <linearGradient
       id="linearGradient3690">
      <stop
         id="stop3692"
         style="stop-color:white;stop-opacity:1"
         offset="0" />
      <stop
         id="stop3694"
         style="stop-color:white;stop-opacity:0.46875"
         offset="1" />
    </linearGradient>
    <linearGradient
       id="linearGradient2781">
      <stop
         id="stop2783"
         style="stop-color:#505050;stop-opacity:1"
         offset="0" />
      <stop
         id="stop6301"
         style="stop-color:#6e6e6e;stop-opacity:1"
         offset="0.13216467" />
      <stop
         id="stop2785"
         style="stop-color:#8c8c8c;stop-opacity:1"
         offset="1" />
    </linearGradient>
    <linearGradient
       id="linearGradient6457">
      <stop
         id="stop6459"
         style="stop-color:white;stop-opacity:0.94117647"
         offset="0" />
      <stop
         id="stop6461"
         style="stop-color:white;stop-opacity:0.70588237"
         offset="1" />
    </linearGradient>
    <linearGradient
       x1="24"
       y1="13"
       x2="24"
       y2="40"
       id="linearGradient5522"
       xlink:href="#linearGradient6457"
       gradientUnits="userSpaceOnUse"
       gradientTransform="matrix(0.368421,0,0,0.3333334,-0.842105,1.6666663)" />
    <linearGradient
       x1="16.033964"
       y1="9.0734701"
       x2="16.075121"
       y2="15.044087"
       id="linearGradient5525"
       xlink:href="#linearGradient3690"
       gradientUnits="userSpaceOnUse"
       gradientTransform="matrix(0.4193513,0,0,0.4137896,-2.4837887,-1.4309525)" />
    <linearGradient
       x1="21.866402"
       y1="8.5763302"
       x2="21.780495"
       y2="39.923653"
       id="linearGradient5528"
       xlink:href="#linearGradient2781"
       gradientUnits="userSpaceOnUse"
       gradientTransform="matrix(0.4545471,0,0,0.4590187,-3.3636843,-2.6312055)" />
  </defs>
  <g
     id="g5512">
    <rect
       width="15.00007"
       height="14.00007"
       x="0.49996537"
       y="1.499965"
       id="rect1887"
       style="fill:url(#linearGradient5528);fill-opacity:1;stroke:#565853;stroke-width:0.99993074;stroke-linejoin:round;stroke-miterlimit:4;stroke-opacity:1;stroke-dasharray:none" />
    <rect
       width="12.999899"
       height="11.999899"
       x="1.5000505"
       y="2.5000505"
       id="rect2779"
       style="opacity:0.2;fill:none;stroke:url(#linearGradient5525);stroke-width:1.00010109;stroke-miterlimit:4;stroke-opacity:1;stroke-dasharray:none" />
    <rect
       width="14"
       height="9"
       x="1"
       y="6"
       id="rect6287"
       style="fill:url(#linearGradient5522);fill-opacity:1;stroke:none" />
    <path
       d="M 14,4.2500003 C 14.000178,4.664161 13.664339,5 13.25,5 12.835658,5 12.499819,4.664161 12.5,4.2500003 12.499819,3.8358394 12.835658,3.5 13.25,3.5 c 0.414339,0 0.750178,0.3358394 0.75,0.7500003 l 0,0 z"
       id="path6293"
       style="fill:#ffc24c;fill-opacity:1;stroke:none" />
    <path
       d="M 5.5355337,13.292894 2.7071067,10.464466 2,14 5.5355337,13.292894 z"
       id="rect5590"
       style="opacity:0.7;fill:#a00;fill-opacity:1;stroke:none" />
    <path
       d="M 12,4.2500003 C 12.000178,4.664161 11.664339,5 11.25,5 10.835658,5 10.499819,4.664161 10.5,4.2500003 10.499819,3.8358394 10.835658,3.5 11.25,3.5 c 0.414339,0 0.750178,0.3358394 0.75,0.7500003 l 0,0 z"
       id="path6302"
       style="fill:#ffc24c;fill-opacity:1;stroke:none" />
    <path
       d="M 10,4.2500003 C 10.000178,4.664161 9.664339,5 9.25,5 8.835658,5 8.499819,4.664161 8.5,4.2500003 8.499819,3.8358394 8.835658,3.5 9.25,3.5 9.664339,3.5 10.000178,3.8358394 10,4.2500003 l 0,0 z"
       id="path6304"
       style="fill:#ffc24c;fill-opacity:1;stroke:none" />
    <path
       d="M 5.535534,7.7071057 2.707107,10.535534 2,7 5.535534,7.7071057 z"
       id="path6312"
       style="opacity:0.7;fill:#a00;fill-opacity:1;stroke:none" />
    <path
       d="M 10.464467,13.292894 13.292894,10.464466 14,14 10.464467,13.292894 z"
       id="path6316"
       style="opacity:0.7;fill:#a00;fill-opacity:1;stroke:none" />
    <path
       d="M 10.464466,7.7071056 13.292893,10.535534 14,6.9999999 10.464466,7.7071056 z"
       id="path6318"
       style="opacity:0.7;fill:#a00;fill-opacity:1;stroke:none" />
  </g>
</svg>

<?xml version="1.0" encoding="UTF-8"?>
<!-- Created with Inkscape (http://www.inkscape.org/) -->
<svg id="svg4375" width="16" height="16" version="1.0" xmlns="http://www.w3.org/2000/svg" xmlns:xlink="http://www.w3.org/1999/xlink">
 <defs id="defs4377">
  <linearGradient id="linearGradient5522" x1="24" x2="24" y1="13" y2="40" gradientTransform="matrix(.36842 0 0 .33333 -.8421 1.6667)" gradientUnits="userSpaceOnUse">
   <stop id="stop6459" style="stop-color:#fff;stop-opacity:.94118" offset="0"/>
   <stop id="stop6461" style="stop-color:#fff;stop-opacity:.70588" offset="1"/>
  </linearGradient>
  <linearGradient id="linearGradient5525" x1="16.034" x2="16.075" y1="9.0735" y2="15.044" gradientTransform="matrix(.41935 0 0 .41379 -2.4838 -1.431)" gradientUnits="userSpaceOnUse">
   <stop id="stop3692" style="stop-color:#fff" offset="0"/>
   <stop id="stop3694" style="stop-color:#fff;stop-opacity:.46875" offset="1"/>
  </linearGradient>
  <linearGradient id="linearGradient5528" x1="21.866" x2="21.78" y1="8.5763" y2="39.924" gradientTransform="matrix(.45455 0 0 .45902 -3.3637 -2.6312)" gradientUnits="userSpaceOnUse">
   <stop id="stop2783" style="stop-color:#505050" offset="0"/>
   <stop id="stop6301" style="stop-color:#6e6e6e" offset=".13216"/>
   <stop id="stop2785" style="stop-color:#8c8c8c" offset="1"/>
  </linearGradient>
 </defs>
 <g id="g5512">
  <rect id="rect1887" x=".49997" y="1.5" width="15" height="14" style="fill:url(#linearGradient5528);stroke-linejoin:round;stroke-width:.99993;stroke:#565853"/>
  <rect id="rect2779" x="1.5001" y="2.5001" width="13" height="12" style="fill:none;opacity:.2;stroke-width:1.0001;stroke:url(#linearGradient5525)"/>
  <rect id="rect6287" x="1" y="6" width="14" height="9" style="fill:url(#linearGradient5522)"/>
  <path id="path6293" d="m14 4.25c1.78e-4 0.41416-0.33566 0.75-0.75 0.75-0.41434 0-0.75018-0.33584-0.75-0.75-1.81e-4 -0.41416 0.33566-0.75 0.75-0.75 0.41434 0 0.75018 0.33584 0.75 0.75z" style="fill:#ffc24c"/>
  <path id="rect5590" d="m5.5355 13.293-2.8284-2.8284-0.70711 3.5355 3.5355-0.70711z" style="fill:#a00;opacity:.7"/>
  <path id="path6302" d="m12 4.25c1.78e-4 0.41416-0.33566 0.75-0.75 0.75-0.41434 0-0.75018-0.33584-0.75-0.75-1.81e-4 -0.41416 0.33566-0.75 0.75-0.75 0.41434 0 0.75018 0.33584 0.75 0.75z" style="fill:#ffc24c"/>
  <path id="path6304" d="m10 4.25c1.78e-4 0.41416-0.33566 0.75-0.75 0.75-0.41434 0-0.75018-0.33584-0.75-0.75-1.81e-4 -0.41416 0.33566-0.75 0.75-0.75 0.41434 0 0.75018 0.33584 0.75 0.75z" style="fill:#ffc24c"/>
  <path id="path6312" d="m5.5355 7.7071-2.8284 2.8284-0.70711-3.5355 3.5355 0.70711z" style="fill:#a00;opacity:.7"/>
  <path id="path6316" d="m10.464 13.293 2.8284-2.8284 0.70711 3.5355-3.5355-0.70711z" style="fill:#a00;opacity:.7"/>
  <path id="path6318" d="m10.464 7.7071 2.8284 2.8284 0.70711-3.5355-3.5355 0.70711z" style="fill:#a00;opacity:.7"/>
 </g>
</svg>
